static/images/mobile/copyright/wikipedia-wordmark-lfn.svg

<?xml version="1.0" encoding="UTF-8"?>
<svg width="120px" height="19px" viewBox="0 0 120 19" version="1.1" xmlns="http://www.w3.org/2000/svg" xmlns:xlink="http://www.w3.org/1999/xlink">
    <title>lfn-wordmark</title>
    <g id="Page-1" stroke="none" stroke-width="1" fill="none" fill-rule="evenodd">
        <path d="M12.5780948,1.24957498 C12.5048604,1.17634476 12.4636659,1.0253004 12.4545114,0.796441908 C12.4545114,0.567576382 12.4957059,0.407374732 12.5780948,0.315836958 C14.1160278,0.352466128 15.1367394,0.370780714 15.6402295,0.370780714 C16.1620285,0.370780714 16.9859212,0.352466128 18.1119076,0.315836958 C18.203451,0.407374732 18.2492227,0.567576382 18.2492227,0.796441908 C18.2492227,1.01614663 18.203451,1.16719098 18.1119076,1.24957498 C17.6908071,1.29534387 17.3292097,1.38688867 17.0271153,1.52420939 C16.7250217,1.66152309 16.4686998,1.87207403 16.2581495,2.15586222 C16.0475986,2.4304896 15.8873969,2.67765565 15.7775446,2.89736037 C15.6676922,3.10791131 15.5257999,3.42831461 15.3518676,3.85857027 L9.52969182,18.1943032 C9.36491328,18.6245588 9.14063167,18.8442635 8.856847,18.8534173 C8.59136988,18.8534173 8.37624205,18.6337126 8.21146351,18.1943032 L2.66392006,3.80364761 C2.26112785,2.76920046 1.92241629,2.10093252 1.64778539,1.79884381 C1.38230897,1.49674806 0.878819226,1.31365845 0.137316152,1.24957498 C0.0457720507,1.15803018 0,1.00240542 0,0.782700697 C0,0.562995978 0.0366175703,0.407374732 0.109852711,0.315836958 C1.3456914,0.352466128 2.32063091,0.370780714 3.03467125,0.370780714 C3.80363777,0.370780714 4.93877893,0.352466128 6.44009474,0.315836958 C6.51332988,0.407374732 6.54994745,0.567576382 6.54994745,0.796441908 C6.54994745,1.01614663 6.51332988,1.16719098 6.44009474,1.24957498 C5.49719521,1.35027356 4.93877893,1.54251695 4.76484591,1.82630514 C4.59091359,2.10093252 4.67330286,2.65477121 5.01201372,3.4878212 L9.48849771,14.9399244 L9.62581281,14.9399244 L14.0611016,3.6663304 C14.4181222,2.89736389 14.5005114,2.32063724 14.3082694,1.93615047 C14.1251827,1.55167073 13.5484578,1.32281223 12.5780948,1.24957498 L12.5780948,1.24957498 Z M23.7967661,9.00789698 L23.7967661,15.0772416 C23.7967661,16.2032265 23.9111957,16.8989593 24.1400549,17.1644399 C24.3689141,17.4207598 24.9319073,17.5809614 25.8290344,17.6450449 C25.9205785,17.7365897 25.9663506,17.8967913 25.9663506,18.1256498 C25.9663506,18.3453546 25.9205785,18.491822 25.8290344,18.5650522 C24.5199606,18.5284231 23.4763632,18.5101085 22.6982422,18.5101085 C21.9842018,18.5101085 20.9360275,18.5284231 19.5537193,18.5650522 C19.4804841,18.491822 19.4438665,18.3453546 19.4438665,18.1256498 C19.4438665,17.8967913 19.4804841,17.7365897 19.5537193,17.6450449 C20.4508464,17.5718076 21.0138396,17.4070291 21.2426988,17.1507093 C21.4715579,16.8943824 21.5859875,16.2032265 21.5859875,15.0772416 L21.5859875,9.00789698 C21.5859875,7.88191205 21.4715579,7.19075968 21.2426988,6.93443985 C21.0138396,6.66895921 20.4508464,6.50418067 19.5537193,6.44010423 C19.4804841,6.34855943 19.4438665,6.19293467 19.4438665,5.97322995 C19.4438665,5.74437145 19.4804841,5.59332358 19.5537193,5.52008633 C21.0184171,5.5567155 22.0574373,5.57503008 22.6707798,5.57503008 C23.3482022,5.57503008 24.4009537,5.5567155 25.8290344,5.52008633 C25.9205785,5.59332358 25.9663506,5.74437145 25.9663506,5.97322995 C25.9663506,6.19293467 25.9205785,6.34855943 25.8290344,6.44010423 C24.9319073,6.51333445 24.3689141,6.67811299 24.1400549,6.93443985 C23.9111957,7.19075968 23.7967661,7.88191205 23.7967661,9.00789698 L23.7967661,9.00789698 Z M34.8094648,18.784764 C32.7863506,18.784764 31.1934914,18.2538097 30.0308871,17.1919013 C28.7401223,15.9926791 28.0947398,14.331163 28.0947398,12.2073531 C28.0947398,10.1842347 28.7218137,8.52729554 29.9759613,7.23653559 C31.230109,5.93661484 32.7955051,5.28665446 34.6721497,5.28665446 C35.5143513,5.28665446 36.4206333,5.36446508 37.3909956,5.52008633 C38.3705123,5.66656083 38.9930089,5.73979808 39.2584853,5.73979808 C39.4690356,6.73762309 39.5788879,7.93684175 39.5880424,9.33745406 C39.3408749,9.48392856 39.0616668,9.51138286 38.750418,9.41981696 C38.5856394,8.4036844 38.1691162,7.61641033 37.5008483,7.05799475 C36.8325796,6.49957215 35.9446063,6.22036084 34.8369282,6.22036084 C31.9716124,6.22036084 30.5389545,8.12446958 30.5389545,11.932687 C30.5389545,13.434005 30.9463236,14.7751212 31.7610618,15.9560359 C32.5758007,17.1369434 33.6377071,17.7273972 34.9467809,17.7273972 C35.862217,17.7273972 36.6220291,17.5717725 37.226217,17.260523 C37.830405,16.9492805 38.4620561,16.409176 39.1211702,15.6402094 C39.2310226,15.6768386 39.3408749,15.7592261 39.4507273,15.887372 C39.5605797,16.0063781 39.6383917,16.1116536 39.6841634,16.2031984 C39.0067403,17.1003248 38.2926999,17.7548621 37.5420424,18.1668102 C36.7913848,18.5787583 35.8805256,18.784764 34.8094648,18.784764 L34.8094648,18.784764 Z M46.3714259,9.00789698 L46.3714259,15.0772416 C46.3714259,16.2032265 46.4858555,16.8989593 46.7147147,17.1644399 C46.9435739,17.4207598 47.5065671,17.5809614 48.4036942,17.6450449 C48.4952383,17.7365897 48.5410104,17.8967913 48.5410104,18.1256498 C48.5410104,18.3453546 48.4952383,18.491822 48.4036942,18.5650522 C47.0946204,18.5284231 46.051023,18.5101085 45.272902,18.5101085 C44.5588617,18.5101085 43.5106874,18.5284231 42.1283791,18.5650522 C42.055144,18.491822 42.0185264,18.3453546 42.0185264,18.1256498 C42.0185264,17.8967913 42.055144,17.7365897 42.1283791,17.6450449 C43.0255062,17.5718076 43.5884994,17.4070291 43.8173586,17.1507093 C44.0462178,16.8943824 44.1606474,16.2032265 44.1606474,15.0772416 L44.1606474,9.00789698 C44.1606474,7.88191205 44.0462178,7.19075968 43.8173586,6.93443985 C43.5884994,6.66895921 43.0255062,6.50418067 42.1283791,6.44010423 C42.055144,6.34855943 42.0185264,6.19293467 42.0185264,5.97322995 C42.0185264,5.74437145 42.055144,5.59332358 42.1283791,5.52008633 C43.593077,5.5567155 44.6320972,5.57503008 45.2454396,5.57503008 C45.922862,5.57503008 46.9756136,5.5567155 48.4036942,5.52008633 C48.4952383,5.59332358 48.5410104,5.74437145 48.5410104,5.97322995 C48.5410104,6.19293467 48.4952383,6.34855943 48.4036942,6.44010423 C47.5065671,6.51333445 46.9435739,6.67811299 46.7147147,6.93443985 C46.4858555,7.19075968 46.3714259,7.88191205 46.3714259,9.00789698 L46.3714259,9.00789698 Z M54.93991,7.71714054 L54.93991,12.0974972 C55.461709,12.3080482 56.0704742,12.4133236 56.7662056,12.4133236 C58.3773731,12.4133236 59.1829568,11.3697262 59.1829568,9.28253139 C59.1829568,7.38757995 58.3316014,6.44010423 56.6288905,6.44010423 C55.9697764,6.44010423 55.5212124,6.53622592 55.2831988,6.72846931 C55.0543396,6.92070567 54.93991,7.25026274 54.93991,7.71714054 L54.93991,7.71714054 Z M54.93991,15.0772416 C54.93991,16.2032265 55.0497623,16.8989593 55.269467,17.1644399 C55.4983262,17.4207598 56.0658967,17.5809614 56.9721783,17.6450449 C57.0637224,17.7365897 57.1094944,17.8967913 57.1094944,18.1256498 C57.1094944,18.3453546 57.0637224,18.491822 56.9721783,18.5650522 C55.7363396,18.5284231 54.6927422,18.5101085 53.841386,18.5101085 C52.9808761,18.5101085 51.9327018,18.5284231 50.6968631,18.5650522 C50.623628,18.491822 50.5870104,18.3453546 50.5870104,18.1256498 C50.5870104,17.8967913 50.623628,17.7365897 50.6968631,17.6450449 C51.5939902,17.5718076 52.1524062,17.4070291 52.3721109,17.1507093 C52.6009701,16.8943824 52.7153997,16.2032265 52.7153997,15.0772416 L52.7153997,9.00789698 C52.7153997,7.88191205 52.6009701,7.19075968 52.3721109,6.93443985 C52.1524062,6.66895921 51.5939902,6.50418067 50.6968631,6.44010423 C50.623628,6.34855943 50.5870104,6.19293467 50.5870104,5.97322995 C50.5870104,5.74437145 50.623628,5.59332358 50.6968631,5.52008633 C52.1981782,5.5567155 53.2371984,5.57503008 53.8139236,5.57503008 C54.0427828,5.57503008 54.5005009,5.56589037 55.1870778,5.54761094 C55.8828092,5.5293315 56.4183396,5.52008633 56.7936691,5.52008633 C58.5970785,5.52008633 59.8512262,5.86347953 60.556112,6.55005502 C61.2701523,7.22748376 61.6271725,8.02849201 61.6271725,8.95307977 C61.6271725,10.024142 61.2289575,11.021967 60.4325276,11.9465548 C59.6360983,12.8711496 58.3956824,13.333447 56.7112798,13.333447 C56.0338567,13.333447 55.4434001,13.2235946 54.93991,13.0038899 L54.93991,15.0772416 Z M69.5640069,12.1798918 L67.9574156,12.1798918 L67.9574156,16.3954699 C67.9574156,16.8623407 68.0535366,17.1873209 68.2457786,17.3704105 C68.4471743,17.5535001 68.8408117,17.6450449 69.4266907,17.6450449 L70.6350674,17.6450449 C71.7061275,17.6450449 72.5071344,17.3749909 73.0380879,16.8348829 C73.5690408,16.2856211 73.9672554,15.5303852 74.2327318,14.5691753 C74.4982082,14.4959381 74.7591077,14.5325567 75.0154304,14.6790312 C74.7499533,16.2169642 74.4707451,17.5123046 74.177806,18.5650733 C72.9419666,18.5284371 71.9487181,18.5101296 71.1980606,18.5101296 L66.8588927,18.5101296 C66.1082345,18.5101296 65.0600598,18.5284442 63.7143688,18.5650733 C63.6411336,18.4918431 63.604516,18.3453756 63.604516,18.1256709 C63.604516,17.8968124 63.6411336,17.7366108 63.7143688,17.645066 C64.6114966,17.5718287 65.1699129,17.4070502 65.3896176,17.1507304 C65.6184761,16.8944035 65.7329053,16.2032476 65.7329053,15.0772627 L65.7329053,9.00791807 C65.7329053,7.88193314 65.6184761,7.19078077 65.3896176,6.93446094 C65.1699129,6.6689803 64.6114966,6.50420176 63.7143688,6.44012532 C63.6411336,6.34858052 63.604516,6.19295576 63.604516,5.97325104 C63.604516,5.74439254 63.6411336,5.59334467 63.7143688,5.52010742 C65.0600598,5.55673659 66.09908,5.57505118 66.8314293,5.57505118 L72.653604,5.57505118 C73.0838589,5.57505118 73.4683422,5.53843255 73.8070537,5.4651953 C73.8619834,5.4651953 73.8894483,5.4926496 73.8894483,5.54755821 C74.0176096,5.99612142 74.1869654,7.11295608 74.3975156,8.8980622 C74.1503482,9.00791455 73.8986031,9.05368696 73.6422805,9.0353794 C73.4317302,8.3945728 73.2486431,7.92769852 73.093019,7.63475655 C72.937395,7.3326608 72.6398782,7.07176057 72.2004688,6.85205585 C71.7702138,6.62319736 71.1889117,6.50876811 70.4565624,6.50876811 L68.8637028,6.50876811 C68.5982264,6.50876811 68.3785217,6.57742495 68.2045887,6.71473864 C68.0398101,6.85205937 67.9574209,7.04430275 67.9574209,7.2914688 L67.9574209,11.2873457 L69.5640122,11.2873457 C70.4245221,11.2873457 70.950898,11.1958044 71.14314,11.0127219 C71.3445358,10.8204785 71.4635422,10.3856459 71.5001595,9.70822422 C71.5733946,9.63498697 71.7015559,9.59836835 71.8846434,9.59836835 C72.0768847,9.59836835 72.2142001,9.63498697 72.2965898,9.70822422 C72.2599747,10.6419658 72.2370867,11.3056568 72.2279259,11.6992974 C72.2279259,12.2027832 72.2508139,12.8893587 72.2965898,13.7590238 C72.2233546,13.8322611 72.0906161,13.8688797 71.8983741,13.8688797 C71.7061328,13.8688797 71.5733946,13.8322611 71.5001595,13.7590238 C71.4818519,13.4386205 71.4589675,13.2051851 71.4315061,13.0587177 C71.4040448,12.9030964 71.3262328,12.7474717 71.19807,12.5918434 C71.0790632,12.4270684 70.8868216,12.317216 70.6213452,12.2622863 C70.3650232,12.2073777 70.0125803,12.1799234 69.5640164,12.1799234 L69.5640069,12.1798918 Z M81.2770096,16.3680086 C81.2770096,16.8165718 81.414325,17.141552 81.6889559,17.3429491 C81.9727406,17.5443463 82.6135458,17.6450449 83.6113715,17.6450449 C85.2591569,17.6450449 86.4766874,17.2834461 87.2639628,16.5602484 C88.0512376,15.8370578 88.444875,14.5371406 88.444875,12.6604967 C88.444875,11.8182929 88.3853719,11.0767878 88.2663658,10.4359812 C88.1473589,9.78602079 87.9093453,9.13606041 87.5523247,8.48610003 C87.1953049,7.83613965 86.6414659,7.33265026 85.8908076,6.97563185 C85.1401501,6.61861344 84.2018281,6.44010423 83.0758418,6.44010423 C81.8766203,6.44010423 81.2770096,6.73304268 81.2770096,7.31891959 L81.2770096,16.3680086 Z M80.1510222,5.57501954 C80.3341097,5.57501954 80.8192912,5.56587982 81.6065667,5.54760039 C82.4029959,5.52932096 83.162808,5.52018124 83.8860028,5.52018124 C86.1562844,5.52018124 87.8910363,6.13809988 89.0902585,7.37393717 C90.2894799,8.60978148 90.8890907,10.211798 90.8890907,12.1799867 C90.8890907,13.3608943 90.6968491,14.3861806 90.3123658,15.2558457 C89.9278825,16.116357 89.4015066,16.7754712 88.733238,17.2331882 C88.0741238,17.6909052 87.3783921,18.029616 86.6460428,18.2493207 C85.9136942,18.4598717 85.1264191,18.5652526 84.2842174,18.5652526 C83.4053985,18.5652526 82.5265797,18.5560074 81.6477608,18.537728 C80.7780964,18.5194486 80.288338,18.5103089 80.1784857,18.5103089 C79.5010625,18.5103089 78.4528879,18.5286234 77.0339617,18.5652526 C76.9424183,18.4920224 76.8966466,18.3455549 76.8966466,18.1258502 C76.8966466,17.8969917 76.9424183,17.7367901 77.0339617,17.6452453 C77.9310895,17.572008 78.4895058,17.4072295 78.7092105,17.1509096 C78.9380697,16.8945828 79.0524993,16.2034269 79.0524993,15.077442 L79.0524993,9.00809735 C79.0524993,7.88211242 78.9380697,7.19096005 78.7092105,6.93464022 C78.4895058,6.66915958 77.9310895,6.50438104 77.0339617,6.4403046 C76.9424183,6.3487598 76.8966466,6.19313504 76.8966466,5.97343032 C76.8966466,5.74457182 76.9424183,5.59352395 77.0339617,5.52018124 C78.4895058,5.55691587 79.528526,5.57523045 80.1510222,5.57523045 L80.1510222,5.57501954 Z M97.3429245,9.00789698 L97.3429245,15.0772416 C97.3429245,16.2032265 97.4573538,16.8989593 97.6862123,17.1644399 C97.9150708,17.4207598 98.4780632,17.5809614 99.3751897,17.6450449 C99.4667345,17.7365897 99.5125069,17.8967913 99.5125069,18.1256498 C99.5125069,18.3453546 99.4667345,18.491822 99.3751897,18.5650522 C98.0661151,18.5284231 97.0225177,18.5101085 96.2443974,18.5101085 C95.5303536,18.5101085 94.4821786,18.5284231 93.0998724,18.5650522 C93.0266373,18.491822 92.9900197,18.3453546 92.9900197,18.1256498 C92.9900197,17.8967913 93.0266373,17.7365897 93.0998724,17.6450449 C93.9970002,17.5718076 94.5599934,17.4070291 94.7888519,17.1507093 C95.0177104,16.8943824 95.1321396,16.2032265 95.1321396,15.0772416 L95.1321396,9.00789698 C95.1321396,7.88191205 95.0177104,7.19075968 94.7888519,6.93443985 C94.5599934,6.66895921 93.9970002,6.50418067 93.0998724,6.44010423 C93.0266373,6.34855943 92.9900197,6.19293467 92.9900197,5.97322995 C92.9900197,5.74437145 93.0266373,5.59332358 93.0998724,5.52008633 C94.5645696,5.5567155 95.6035908,5.57503008 96.2169361,5.57503008 C96.8943578,5.57503008 97.947109,5.5567155 99.3751897,5.52008633 C99.4667345,5.59332358 99.5125069,5.74437145 99.5125069,5.97322995 C99.5125069,6.19293467 99.4667345,6.34855943 99.3751897,6.44010423 C98.4780632,6.51333445 97.9150708,6.67811299 97.6862123,6.93443985 C97.4573538,7.19075968 97.3429245,7.88191205 97.3429245,9.00789698 L97.3429245,9.00789698 Z M107.998596,10.545837 L112.969414,10.545837 L110.332957,2.89736037 L110.154448,2.89736037 L107.28456,10.1750774 C107.229651,10.3215519 107.257105,10.4222505 107.366922,10.4771732 C107.476775,10.5229421 107.687326,10.545837 107.998575,10.545837 L107.998596,10.545837 Z M104.950199,16.2856246 C104.931919,16.4687071 104.904465,16.6334857 104.867836,16.7799602 C104.831207,16.9172739 104.881556,17.03628 105.018884,17.1369786 C105.165351,17.2285234 105.27978,17.3017571 105.362171,17.3566798 C105.444562,17.4115884 105.600187,17.4619377 105.829046,17.5077277 C106.057904,17.5534966 106.236413,17.5809509 106.364573,17.5900906 C106.492733,17.5992303 106.671246,17.6175449 106.900111,17.6450343 C106.973342,17.7365791 107.009957,17.8967808 107.009957,18.1256393 C107.009957,18.345344 106.973342,18.4918115 106.900111,18.5650417 C105.508646,18.5284125 104.309424,18.5100979 103.302445,18.5100979 C102.606709,18.5100979 101.769082,18.5284125 100.789564,18.5650417 C100.698026,18.4918115 100.652258,18.345344 100.652258,18.1256393 C100.652258,17.8967808 100.698026,17.7365791 100.789564,17.6450343 C101.503608,17.5901257 102.066604,17.4436547 102.478552,17.2056214 C102.890493,16.9676091 103.265823,16.4458122 103.604541,15.6402305 L109.989701,0.562988947 C110.401649,0.562988947 110.918873,0.375325965 111.541372,-3.55271368e-15 L117.336082,16.0933636 C117.48255,16.5236193 117.697677,16.8531763 117.981466,17.0820348 C118.2744,17.3017396 118.544454,17.4390568 118.791628,17.4939865 C119.038794,17.5488951 119.395812,17.5992444 119.862683,17.6450343 C119.954228,17.7365791 120,17.8967808 120,18.1256393 C120,18.345344 119.954228,18.4918115 119.862683,18.5650417 C118.553608,18.5284125 117.48255,18.5100979 116.649507,18.5100979 C115.578444,18.5100979 114.351757,18.5284125 112.969445,18.5650417 C112.896215,18.4918115 112.8596,18.345344 112.8596,18.1256393 C112.8596,17.8967808 112.896215,17.7365791 112.969445,17.6450343 C113.134228,17.6267549 113.262391,17.6176152 113.353936,17.6176152 C113.454634,17.6084755 113.578217,17.5947307 113.724685,17.576381 C113.880306,17.5581016 113.999312,17.539787 114.081703,17.5214372 C114.164094,17.5031578 114.260216,17.4848432 114.370068,17.4664935 C114.489074,17.4482141 114.580616,17.4253296 114.644692,17.3978402 C114.708741,17.3703507 114.777401,17.3337356 114.850673,17.2879948 C114.933057,17.2422259 114.987983,17.1964535 115.015452,17.1506776 C115.042941,17.1049087 115.070396,17.0499826 115.097815,16.9858991 C115.125304,16.9126618 115.134444,16.8348477 115.125234,16.7524567 C115.116094,16.6700727 115.09321,16.5831083 115.056581,16.4915635 L113.422526,11.7267165 L107.490498,11.7267165 C107.151788,11.7267165 106.918352,11.7633351 106.790192,11.8365724 C106.671186,11.9006207 106.575064,12.0242037 106.501827,12.2073215 L104.950199,16.2856246 Z" id="lfn-wordmark" fill="#000000" fill-rule="nonzero"></path>
    </g>
</svg>

<svg xmlns="http://www.w3.org/2000/svg" width="120" height="19"><path fill="#000" fill-rule="nonzero" d="M12.578 1.25c-.073-.074-.114-.225-.123-.454 0-.228.04-.389.123-.48 1.538.036 2.559.055 3.062.055.522 0 1.346-.019 2.472-.055.091.091.137.252.137.48 0 .22-.046.371-.137.454a3.547 3.547 0 0 0-1.085.274 1.959 1.959 0 0 0-.769.632 4.74 4.74 0 0 0-.48.741c-.11.21-.252.531-.426.962L9.53 18.194c-.165.43-.39.65-.673.66-.266 0-.48-.22-.646-.66L2.664 3.804C2.26 2.769 1.922 2.1 1.648 1.799c-.266-.302-.77-.485-1.51-.55C.045 1.159 0 1.003 0 .784 0 .563.037.407.11.316 1.346.352 2.32.37 3.035.37 3.804.37 4.939.352 6.44.316c.073.091.11.252.11.48 0 .22-.037.371-.11.454-.943.1-1.501.293-1.675.576-.174.275-.092.829.247 1.662L9.488 14.94h.138L14.06 3.666c.357-.769.44-1.345.247-1.73-.183-.384-.76-.613-1.73-.686Zm11.219 7.758v6.07c0 1.125.114 1.821.343 2.086.229.257.792.417 1.689.481.092.092.137.252.137.48 0 .22-.045.367-.137.44-1.309-.037-2.353-.055-3.13-.055-.715 0-1.763.018-3.145.055-.074-.073-.11-.22-.11-.44 0-.228.036-.388.11-.48.897-.073 1.46-.238 1.689-.494.229-.257.343-.948.343-2.074v-6.07c0-1.125-.114-1.816-.343-2.073-.23-.265-.792-.43-1.69-.494-.073-.091-.11-.247-.11-.467 0-.229.037-.38.11-.453 1.465.037 2.504.055 3.118.055.677 0 1.73-.018 3.158-.055.092.073.137.224.137.453 0 .22-.045.376-.137.467-.897.073-1.46.238-1.689.494-.229.257-.343.948-.343 2.074Zm11.012 9.777c-2.023 0-3.616-.531-4.778-1.593-1.29-1.2-1.936-2.86-1.936-4.985 0-2.023.627-3.68 1.881-4.97 1.254-1.3 2.82-1.95 4.696-1.95.842 0 1.749.077 2.719.233.98.147 1.602.22 1.867.22.211.998.32 2.197.33 3.597-.247.147-.526.174-.838.083-.164-1.016-.58-1.804-1.25-2.362-.667-.558-1.555-.838-2.663-.838-2.865 0-4.298 1.904-4.298 5.713 0 1.501.407 2.842 1.222 4.023.815 1.18 1.877 1.771 3.186 1.771.915 0 1.675-.155 2.28-.466.603-.312 1.235-.852 1.894-1.62.11.036.22.118.33.246.11.12.187.225.233.316-.677.897-1.391 1.552-2.142 1.964-.75.412-1.661.618-2.733.618Zm11.562-9.777v6.07c0 1.125.115 1.821.344 2.086.229.257.792.417 1.689.481.091.092.137.252.137.48 0 .22-.046.367-.137.44-1.31-.037-2.353-.055-3.131-.055-.714 0-1.762.018-3.145.055-.073-.073-.11-.22-.11-.44 0-.228.037-.388.11-.48.898-.073 1.46-.238 1.69-.494.228-.257.343-.948.343-2.074v-6.07c0-1.125-.115-1.816-.344-2.073-.229-.265-.791-.43-1.689-.494-.073-.091-.11-.247-.11-.467 0-.229.037-.38.11-.453 1.465.037 2.504.055 3.117.055.678 0 1.73-.018 3.159-.055.091.073.137.224.137.453 0 .22-.046.376-.137.467-.897.073-1.46.238-1.69.494-.228.257-.343.948-.343 2.074Zm8.569-1.29v4.38c.522.21 1.13.315 1.826.315 1.611 0 2.417-1.043 2.417-3.13 0-1.895-.851-2.843-2.554-2.843-.66 0-1.108.096-1.346.288-.229.193-.343.522-.343.99Zm0 7.36c0 1.125.11 1.821.33 2.086.228.257.796.417 1.702.481.092.092.137.252.137.48 0 .22-.045.367-.137.44-1.236-.037-2.28-.055-3.13-.055-.861 0-1.91.018-3.145.055-.073-.073-.11-.22-.11-.44 0-.228.037-.388.11-.48.897-.073 1.455-.238 1.675-.494.229-.257.343-.948.343-2.074v-6.07c0-1.125-.114-1.816-.343-2.073-.22-.265-.778-.43-1.675-.494-.073-.091-.11-.247-.11-.467 0-.229.037-.38.11-.453 1.501.037 2.54.055 3.117.055.229 0 .687-.01 1.373-.027a65.793 65.793 0 0 1 1.607-.028c1.803 0 3.057.343 3.762 1.03.714.677 1.071 1.478 1.071 2.403 0 1.071-.398 2.069-1.194 2.994-.797.924-2.037 1.386-3.722 1.386-.677 0-1.268-.11-1.771-.33v2.074Zm14.624-2.898h-1.607v4.215c0 .467.097.792.289.975.201.184.595.275 1.18.275h1.21c1.07 0 1.871-.27 2.402-.81.531-.55.93-1.305 1.195-2.266a.992.992 0 0 1 .782.11c-.265 1.538-.544 2.833-.837 3.886-1.236-.037-2.23-.055-2.98-.055h-4.34c-.75 0-1.798.018-3.144.055-.073-.073-.11-.22-.11-.44 0-.228.037-.388.11-.48.897-.073 1.456-.238 1.676-.494.228-.257.343-.948.343-2.074v-6.07c0-1.125-.115-1.816-.343-2.073-.22-.265-.779-.43-1.676-.494-.073-.091-.11-.247-.11-.467 0-.229.037-.38.11-.453 1.346.037 2.385.055 3.117.055h5.823c.43 0 .814-.037 1.153-.11.055 0 .082.028.082.083.129.448.298 1.565.509 3.35-.248.11-.5.156-.756.137-.21-.64-.393-1.107-.549-1.4-.156-.302-.453-.563-.893-.783-.43-.229-1.011-.343-1.743-.343h-1.593c-.266 0-.485.068-.66.206-.164.137-.247.33-.247.576v3.996h1.607c.86 0 1.387-.091 1.58-.274.2-.193.32-.627.356-1.305.073-.073.202-.11.385-.11.192 0 .33.037.412.11-.037.934-.06 1.598-.07 1.991 0 .504.024 1.19.07 2.06-.074.073-.206.11-.399.11-.192 0-.325-.037-.398-.11a6.12 6.12 0 0 0-.068-.7 1.021 1.021 0 0 0-.234-.467c-.119-.165-.311-.275-.577-.33-.256-.055-.608-.082-1.057-.082Zm11.713 4.188c0 .449.137.774.412.975.284.201.925.302 1.922.302 1.648 0 2.866-.362 3.653-1.085.787-.723 1.18-2.023 1.18-3.9 0-.842-.059-1.583-.178-2.224a6.467 6.467 0 0 0-.714-1.95c-.357-.65-.91-1.153-1.661-1.51-.75-.357-1.69-.536-2.815-.536-1.2 0-1.799.293-1.799.879v9.049ZM80.151 5.575c.183 0 .668-.01 1.456-.027a99.512 99.512 0 0 1 2.279-.028c2.27 0 4.005.618 5.204 1.854 1.2 1.236 1.8 2.838 1.8 4.806 0 1.18-.193 2.206-.578 3.076-.384.86-.91 1.52-1.579 1.977a7.345 7.345 0 0 1-2.087 1.016c-.732.21-1.52.316-2.362.316-.879 0-1.757-.009-2.636-.027-.87-.019-1.36-.028-1.47-.028-.677 0-1.725.019-3.144.055-.092-.073-.137-.22-.137-.44 0-.228.045-.388.137-.48.897-.073 1.456-.238 1.675-.494.23-.256.343-.948.343-2.074V9.008c0-1.126-.114-1.817-.343-2.073-.22-.266-.778-.43-1.675-.495-.092-.091-.137-.247-.137-.467 0-.228.045-.38.137-.453 1.456.037 2.495.055 3.117.055Zm17.192 3.433v6.07c0 1.125.114 1.821.343 2.086.23.257.792.417 1.69.481.09.092.137.252.137.48 0 .22-.046.367-.138.44-1.309-.037-2.352-.055-3.13-.055-.715 0-1.763.018-3.145.055-.073-.073-.11-.22-.11-.44 0-.228.037-.388.11-.48.897-.073 1.46-.238 1.689-.494.229-.257.343-.948.343-2.074v-6.07c0-1.125-.114-1.816-.343-2.073-.229-.265-.792-.43-1.69-.494-.072-.091-.109-.247-.109-.467 0-.229.037-.38.11-.453 1.465.037 2.504.055 3.117.055.677 0 1.73-.018 3.158-.055.092.073.138.224.138.453 0 .22-.046.376-.138.467-.897.073-1.46.238-1.689.494-.229.257-.343.948-.343 2.074Zm10.656 1.538h4.97l-2.636-7.649h-.179l-2.87 7.278c-.054.147-.027.247.083.302.11.046.32.069.632.069Zm-3.049 5.74a3.467 3.467 0 0 1-.082.494c-.037.137.014.256.15.357.147.092.262.165.344.22.083.055.238.105.467.15.229.046.407.074.536.083.128.01.306.028.535.055.073.092.11.252.11.48 0 .22-.037.367-.11.44-1.391-.037-2.59-.055-3.598-.055-.695 0-1.533.018-2.512.055-.092-.073-.138-.22-.138-.44 0-.228.046-.388.138-.48.714-.055 1.277-.201 1.689-.44.411-.237.787-.76 1.126-1.565L109.99.563c.412 0 .929-.188 1.551-.563l5.795 16.093c.147.43.362.76.645.989.293.22.563.357.81.412.248.055.605.105 1.072.151.091.092.137.252.137.48 0 .22-.046.367-.137.44-1.31-.037-2.38-.055-3.213-.055-1.072 0-2.298.018-3.68.055-.074-.073-.11-.22-.11-.44 0-.228.036-.388.11-.48.164-.018.292-.027.384-.027.1-.01.224-.023.37-.042.156-.018.275-.036.358-.055.082-.018.178-.036.288-.055.12-.018.21-.04.275-.068.064-.028.132-.064.206-.11a.434.434 0 0 0 .164-.137c.028-.046.055-.101.083-.165a.498.498 0 0 0 .027-.234 1.003 1.003 0 0 0-.068-.26l-1.634-4.765h-5.933c-.338 0-.572.036-.7.11-.119.064-.215.187-.288.37l-1.552 4.079Z"/></svg>
